X:11
T: ICH HAB MICH ERGEBEN
N: B0010
O: Europa, Mitteleuropa, Deutschland, Thueringen (Melodie)
R: politisch, national, Vaterlands - Lied
M: 4/4
L: 1/8
K: G
D2 | B4A2B2 | G4D2
D2 | d4c2d2 | B4z2
G2 | e2e2e2e2 | d4B2
d2 | d2cBc2d2 | B4z2
G2 | e2e2g2e2 | d4B2
d2 | d2cBc2d2 | B4z2

@@@ Tune index: 1814
